icons/1_Primary/WEB.DE.svg

<svg width="1024" height="1024" fill="none" xmlns="http://www.w3.org/2000/svg"><g clip-path="url(#a)"><path d="M512 1024c282.77 0 512-229.23 512-512S794.77 0 512 0 0 229.23 0 512s229.23 512 512 512Z" fill="#F9DE81"/><path d="M326.53 413.06a130.644 130.644 0 0 1 25.92-7.27C482 390.27 537.95 390.27 682 396.48c-1-11.41-56-10.37-74.61-15.55-18.61-5.18-160.61-7.25-203.12 4.14l-56 10.37c-8.28 2.07-12.42-9.34-11.39-14.51 1.03-5.17-8.3-1 9.32-8.28 17.62-7.28 48.71-9.34 66.33-11.41a966.273 966.273 0 0 1 260.11 6.21s22.79 3.13 28 11.41a23.742 23.742 0 0 1 1 14.51c-1 3.11-12.47 8.28-4.14 6.21 8.33-2.07 24.89-2 31.1 9.34 6.21 11.34-4.12 13.43-7.25 16.56-3.13 3.13-1.06 10.37-7.27 13.48-6.21 3.11-22.79-4.14-30.06-4.14l-25.9-3.11a541.714 541.714 0 0 0-100.51-2.07 722.352 722.352 0 0 0-95.34 6.21c-28 5.18-59.09 7.25-87.06 16.58-10.37 3.11-45.61 5.2-44.57-4.14 1.04-9.34 14.49-10.37 19.69-12.44 5.2-2.07 9.34 1 13.48-4.14 4.14-5.14-17.62-1-22.79 0-5.17 1-12.44 5.18-17.62 3.11-14.49-5.18-8.26-18.66 3.13-21.76Zm187.57-68.4c5.2 1 45.61 2.07 47.68-13.48a46.672 46.672 0 0 0-9.34-25.9c-4.14-3.11-11.39 20.72-13.46-2.07a53.736 53.736 0 0 0-2.07-13.48c-1.06-2.07-2.09-3.11-4.16-3.11h-2.07a9.357 9.357 0 0 0-3.11 5.18c-3.11 6.23-4.14 28-9.32 28-5.18 0-6.23-13.48-5.2-17.62h-1a37.907 37.907 0 0 0-8.28 6.21c-6.23 6.23-13.48 20.72-9.34 28a24.862 24.862 0 0 0 19.69 9.32l-.02-1.05ZM791.74 662.8c1-1 1-3.11 2.07-5.18a6.14 6.14 0 0 0-1-4.14 13.475 13.475 0 0 0-3.11-8.3c-7.25-10.35-42.48-16.58-42.48-16.58-17.62-4.14-38.34-7.25-61.14-10.35a228.611 228.611 0 0 0-1-53.89 577.971 577.971 0 0 0-1.08-74.62 42.444 42.444 0 0 0-8.28-24.86c-4.14-6.23-5.18-12.44-15.55-11.41-10.37 1.03-12.42 13.48-10.35 20.72l4.14 15.55c1 3.11 5.18 102.58 4.14 111.92v13.48l-75.54-5.2h1c12.44-10.35 8.3-23.83 6.21-38.34-2.09-14.51-1-90.14-3.11-98.44-2.11-8.3-7.25-9.32-12.42-14.51a12.473 12.473 0 0 0-17.31-3.19 12.332 12.332 0 0 0-2.38 2.2c-6.23 6.23 2.07 90.16 2.07 126.43a96.141 96.141 0 0 0 2.07 24.91h-74.63c0-1-1-3.11-1-4.14a80.252 80.252 0 0 1-5.2-14.51 141.017 141.017 0 0 1-2.07-21.76c-1-15.55 1-62.17 2.07-74.61 1.07-12.44 9.34-37.31-14.49-32.13a61.223 61.223 0 0 0-17.66 4.15c-4.14 3.06-4.14 11.34-4.14 15.5s-2.07 66.31-2.07 78.75a116.908 116.908 0 0 0 5.2 33.17 42.458 42.458 0 0 0 16.56 16.56H431.2l-54.93 4.16c-3.11-8.3 1-43.54 8.28-109.85 2.07-15.55-1-15.55-10.35-24.89a12.488 12.488 0 0 0-17.31-3.19 12.97 12.97 0 0 0-2.38 2.2c-6.23 5.2-5.2 11.41-6.23 18.65-3.11 23.85-8.28 63.23-10.35 88.09a117.457 117.457 0 0 0 2.07 32.11v2.07l-30.06 4.14c-26.93 4.14-49.73 5.18-65.28 12.44-15.55 7.26-10.37 5.18-12.44 9.32l-2.07 4.12a24.227 24.227 0 0 1 1 4.14 11.594 11.594 0 0 0 8.3 9.32h9.32a75.684 75.684 0 0 0 44.55-9.32c86-34.2 331.62-23.83 385.51-13.48 23.83 5.18 60.1 9.34 81.88 22.79l10.39 4.2h4.14c2.739.55 5.561.55 8.3 0h3.11a10.373 10.373 0 0 0 5.18-4.16" fill="#fff"/></g><defs><clipPath id="a"><path fill="#fff" d="M0 0h1024v1024H0z"/></clipPath></defs></svg>

<svg width="1024" height="1024" viewBox="0 0 1024 1024" fill="none" xmlns="http://www.w3.org/2000/svg">
<g clip-path="url(#clip0_2_3900)">
<path d="M512 1024C794.77 1024 1024 794.77 1024 512C1024 229.23 794.77 0 512 0C229.23 0 0 229.23 0 512C0 794.77 229.23 1024 512 1024Z" fill="#F9DE81"/>
<path d="M326.53 413.06C334.896 409.751 343.583 407.314 352.45 405.79C482 390.27 537.95 390.27 682 396.48C681 385.07 626 386.11 607.39 380.93C588.78 375.75 446.78 373.68 404.27 385.07L348.27 395.44C339.99 397.51 335.85 386.1 336.88 380.93C337.91 375.76 328.58 379.93 346.2 372.65C363.82 365.37 394.91 363.31 412.53 361.24C499.117 351.574 586.613 353.663 672.64 367.45C672.64 367.45 695.43 370.58 700.64 378.86C702.483 383.473 702.833 388.548 701.64 393.37C700.64 396.48 689.17 401.65 697.5 399.58C705.83 397.51 722.39 397.58 728.6 408.92C734.81 420.26 724.48 422.35 721.35 425.48C718.22 428.61 720.29 435.85 714.08 438.96C707.87 442.07 691.29 434.82 684.02 434.82L658.12 431.71C624.753 427.906 591.105 427.213 557.61 429.64C525.728 429.604 493.878 431.678 462.27 435.85C434.27 441.03 403.18 443.1 375.21 452.43C364.84 455.54 329.6 457.63 330.64 448.29C331.68 438.95 345.13 437.92 350.33 435.85C355.53 433.78 359.67 436.85 363.81 431.71C367.95 426.57 346.19 430.71 341.02 431.71C335.85 432.71 328.58 436.89 323.4 434.82C308.91 429.64 315.14 416.16 326.53 413.06ZM514.1 344.66C519.3 345.66 559.71 346.73 561.78 331.18C561.342 321.804 558.087 312.778 552.44 305.28C548.3 302.17 541.05 326 538.98 303.21C538.865 298.647 538.17 294.117 536.91 289.73C535.85 287.66 534.82 286.62 532.75 286.62H530.68C529.099 287.956 528.005 289.777 527.57 291.8C524.46 298.03 523.43 319.8 518.25 319.8C513.07 319.8 512.02 306.32 513.05 302.18H512.05C509.019 303.862 506.233 305.951 503.77 308.39C497.54 314.62 490.29 329.11 494.43 336.39C496.789 339.336 499.788 341.707 503.2 343.322C506.611 344.937 510.346 345.753 514.12 345.71L514.1 344.66ZM791.74 662.8C792.74 661.8 792.74 659.69 793.81 657.62C793.981 656.165 793.627 654.697 792.81 653.48C792.739 650.442 791.643 647.517 789.7 645.18C782.45 634.83 747.22 628.6 747.22 628.6C729.6 624.46 708.88 621.35 686.08 618.25C687.873 600.31 687.537 582.221 685.08 564.36C686.328 539.489 685.967 514.564 684 489.74C683.931 480.788 681.033 472.086 675.72 464.88C671.58 458.65 670.54 452.44 660.17 453.47C649.8 454.5 647.75 466.95 649.82 474.19L653.96 489.74C654.96 492.85 659.14 592.32 658.1 601.66V615.14L582.56 609.94H583.56C596 599.59 591.86 586.11 589.77 571.6C587.68 557.09 588.77 481.46 586.66 473.16C584.55 464.86 579.41 463.84 574.24 458.65C572.363 455.937 569.488 454.078 566.244 453.48C562.999 452.882 559.65 453.594 556.93 455.46C556.043 456.086 555.243 456.825 554.55 457.66C548.32 463.89 556.62 547.82 556.62 584.09C556.223 592.448 556.919 600.822 558.69 609H484.06C484.06 608 483.06 605.89 483.06 604.86C480.865 600.202 479.124 595.342 477.86 590.35C476.608 583.161 475.916 575.886 475.79 568.59C474.79 553.04 476.79 506.42 477.86 493.98C478.93 481.54 487.2 456.67 463.37 461.85C457.31 462.349 451.358 463.747 445.71 466C441.57 469.06 441.57 477.34 441.57 481.5C441.57 485.66 439.5 547.81 439.5 560.25C439.628 571.499 441.38 582.671 444.7 593.42C448.558 600.383 454.297 606.122 461.26 609.98H431.2L376.27 614.14C373.16 605.84 377.27 570.6 384.55 504.29C386.62 488.74 383.55 488.74 374.2 479.4C372.32 476.691 369.445 474.835 366.202 474.238C362.96 473.64 359.612 474.349 356.89 476.21C356.008 476.841 355.208 477.58 354.51 478.41C348.28 483.61 349.31 489.82 348.28 497.06C345.17 520.91 340 560.29 337.93 585.15C337.144 595.898 337.84 606.702 340 617.26V619.33L309.94 623.47C283.01 627.61 260.21 628.65 244.66 635.91C229.11 643.17 234.29 641.09 232.22 645.23L230.15 649.35C230.604 650.698 230.939 652.083 231.15 653.49C231.5 655.674 232.468 657.711 233.938 659.363C235.409 661.014 237.321 662.21 239.45 662.81H248.77C264.224 664.348 279.778 661.094 293.32 653.49C379.32 619.29 624.94 629.66 678.83 640.01C702.66 645.19 738.93 649.35 760.71 662.8L771.1 667H775.24C777.979 667.55 780.801 667.55 783.54 667H786.65C788.786 666.219 790.606 664.757 791.83 662.84" fill="white"/>
</g>
<defs>
<clipPath id="clip0_2_3900">
<rect width="1024" height="1024" fill="white"/>
</clipPath>
</defs>
</svg>
